X: 131002
Q: "Scotch Jig."
M: 6/8
L: 1/8
K: Am
uE |\
cBc dcd | ede ua2ug | edB ABd | ve2vA uA2 |]
u^g |\
va2vA ABA | a2A A2^f | g2G GAG | BAB GAB |\
cBc dcd | ede a2g | edB ABd | e2A A2 |]


